X: 66
T:Fifine
M:2/4
L:1/16
C:Frederic Paris
R:Polka
Z:Steve Mansfield
K:C
Bcde fefg | f2e2 d2c2 | Bcde fefg | e6 c2 | Bcde fefg |
f2e2 d2c2 | d2de dcBA |1 G6 c2 :|2 G6 Bc |
|: [K:G] d2dg e2eg | d2BB BGBc | d2dg e2eg | d6 Bc | d2dg e2eg |
d2B2 B2g2 |1 fgfe dedc | BcBA G2Bc :|2 fgfe d2ef | g8 ||

